X:1
T:Lizzie Wan
M:4/4
L:1/8
K:G
 D2| G2G-D G/2 G3/2 BB| A2A-G D2 DD| G3 A B2 d2| A6 FG| A2 Bc d2A-B|\
 B2- AG G2 G/2G/2 B| A3 D E2 E2| D4 z2|
